X:17
T:La Yoyette
M:C
L:1/8
N:Mouvt de marche anim
N:Dcid
N:La Bourre 4th edition 1929, page 33
Z:Steve Mansfield www.lesession.co.uk April 2012
K:G
B2 B > A | G3 A B A B c | d2 A2 B2 B > A |
G3 A B A B c | d2 A4 z2 | d2 d > e d2 c2 |
[M:3/4] c B A B c d | B2 A2 E F | G6 | [M:C] !f! d2 d > e d2 c2 |
[M:3/4] c B A B c d | B2 A2 E F | [M:C] G8 |]

